X: 1425
T: An Tulach
R: mazurka
M: 3/4
K: Dmajor
|:f2|g>f e>b a>g|f>A d2 d>f|e>A c2 (3cde|f>A d2 d>f|
g2 e>B (3bag|f>A d2- d>f|e>A c2- c>e|d2 d2:|
|:f2|e>A c2- c>A|f>A d2- d>f|e>A g2- g>A|f>A d2- d>f|
g>f e>b a>g|(3fga d>c d>f|e>A (3cBA c>e|d4:|

